X: 13
T: Pigeon on the Gate
M: C|
L: 1/8
Z: 2006 John Chambers <jc@trillian.mit.edu>
K: EDor
   dc | "Em"BEE2 BEdE | "Em"BEE2 dBAF | "D"D2FD ADFD |  "D"  D2FA   BAdc |
   y4 | "Em"BEE2 BEdE | "Em"BEE2 dBAF | "D"D2FA dfec | "(Bm)"dBAF "Em"E2 :|
|: FA | "Em"Beed efed | Bdef gfed | "D"Add2 dedB |  "D"  ABde   fded |
   y4 | "Em"Beed efed | Bdef g2fg | "D"afge fdec | "(Bm)"dBAF "Em"E2 :|
%%sep 1 1 500
